X: 271
M: 2/4
L: 1/8
K: G
|:!segno!\
[|\
"2 F"DD/E/ FG | AD cB | AD cB | AA/B/ A/G/F/E/ |\
|:[K:Gm]\
"2 F"Bd/c/ BA | Gg!+!^fg | dcBA | !+!BA/B/ GD |\
|:\
"2 F"BB/c/ de | fe/d/ cB | AA/B/ cd | ed/c/ BA |\

